!!!OTL: Von der hohen Alm auf die Niederalm, von der Niederalm auf d'Tret ja
!!!ARE: Europa, Mitteleuropa, Deutschland, Bayern
!!!SCT: D0285
!!!YEM: Copyright 1995, estate of Helmut Schaffrath.
**kern
*ICvox
*Ivox
*M3/4
*k[f#c#]
*D:
=1
{8.d
16e
=2
8f#
8d
4b
8.a
16g
=3
8g
8c#
4e}
{8e
8f#
=4
8g
8e
4cc#
4b
=5
8a
8d
4f#}
{8f#
8g
=6
8a
8dd
4ff#
8.ee
16dd
=7
8cc#
8a
4cc#}
{12b
12a
12g
=8
8g
8e
8g
8a
8b
8g
=9
2f#}
{8f#
8g
=10
8a
8dd
4ff#
8.ee
16dd
=11
8cc#
8a
4cc#}
{12b
12a
12g
=12
8g
8e
8g
8a
8b
8g
=13
2f#}
{8.a
16f#
=14
8g
8ee
8cc#
8ee
8.g
16a
=15
8dd
8ff#
8dd
8ff#
8.dd}
{16a
=16
8cc#
8gg
8ee
8gg
8.cc#
16dd
=17
8dd
8ff#
8dd
8ff#
8.dd}
{16dd
=18
8dd
8bb
8aa#
8bb
8.ee
16dd
=19
8dd
8ff#
8dd
8ff#
8.dd}
{16dd
=20
8cc#
8gg
8ee
8gg
8cc#
8ee
=21
4d
4r}
==
!!!AGN: Hirten - Lied, Bauern - Lied, Kiltlied, Jodler
!! Dreistimmig notiert; Inzipit = Variante zum Lied
!!!ONB: ESAC (Essen Associative Code) Database: DVA
!!!AMT: simple triple
!!!AIN: vox
!!!EED: Helmut Schaffrath
!!!EEV: 1.0
*-
